X:94
T:Green bed - Hannaford not Masters
C:Taken down from J. Masters, by H.Fl.S.
T:[R. Hannaford  is written, in a different handwriting, in pencil above J. Masters. 
T:The melody is attributed to Roger Hannaford in the Fair Copy Mss. – Ed.]
%%VWML:SBG-1-1-426-0
F:http://www.vwml.org/record/SBG/1/1/426
Z:Original Sibleius Transcription by Martin and Shan Graebe
L:1/8
M:2/4
I:linebreak $
K:G
B/A/ | G G G/A/ B/c/ | d B/c/ d e/ e/ | e d B G | (B2 A) D | G B/c/ d B | G B/G/ E G | 
E A D E/F/ | G2 z D |$ G G D E/F/ | A3/2 F/ D D | G B/c/ d e | (e2 d) |: D | G A/B/ d B | 
G B/G/ E G | E A D E/F/ | G3  |] 
T:Green bed- Gregory
C:Taken down from R. Gregory, by F.W.B.
L:1/8
M:2/4
I:linebreak $
K:C
G | ccAB/c/ | d d GG | cGcd | e2 f/e/ dG | ce/f/ge/d/ | ce/c/AB/c/ |$ de/d/ GA/B/ | c2 G2 | 
ce/f/g e/d/ | ce/c/ AB/c/ | de/c/ GA/B/ | c3  |] 
T:Green bed - Masters- second tune
C:Taken down from J. Masters, by H.Fl.S.  
L:1/8
M:2/4
I:linebreak $
K:C
G | cc de | f2 ed | ed cB | B3 G | cc de | f2 ed | cd ef | g6 g |$ aa gf | e2 de | gf ed | cB AG | 
c2 de | f2 ed | ed cB | c3  |] 
T:Green bed - Langworthy
C:Taken down from Mary Langworthy by Miss B. Bidder.  Jan. 1893.
L:1/4
M:4/4
I:linebreak $
K:Ab
E/ E/ | A3/2 A/ A F | E D D E | E3/2 E/ E3/2 E/ | E2 z A | B3/2 A/ B B | e2 B G |$ (A B) c d | 
B2 z z/ A/ | B3/2 B/ B3/2 B/ | e2 B c | A G A (B/c/) |$ (d c) (B G) | E3/2 A/ E B | (c d) c c/B/ | 
A3/2 F/ E C | E2 z2 |] 



